X:13
T: Todtenamt
N: A0018
O: Europa, Mitteleuropa, Deutschland
N: Melodie: Hs. des 15.Jahrh. aus Karlsruhe
R: Romanze, Ballade, Lied
M: 4/2
L: 1/4
K: D
D2 | D2D2D3G | A4=F3
E | D2G2AG=FE | =F4z2
E2 | G2A2G=FED | G4A2
=FE | DCD2=FEDC | D4z2

@@@ Tune index: 13
